X:313
T: DORT BEIM SEE DA DRUNT
N: E0177
O: Europa, Mitteleuropa, Oesterreich, Steiermark
R: erzaehlendes Volks - Lied, Sage, Pflanzen - Maerchen
M: 3/4
L: 1/8
K: C
 | G,4E2 | E,CG,4 |
G,G,B,2G,F | E4
E,C | B,F,B,2G,D | CE,C2
G,C | B,FB,2FB, | CEG4 |
A,3FA,F | EG,E2
G,E | D4G,D | C4z2

@@@ Tune index: 3963
